X:204
T:Sullivan's Polka
Z:Jack Campin, http://www.campin.me.uk/
F:Jack Campin's Nine-Note Tunebook
% last edit 03-02-2013
N:more often played in G
M:2/4
L:1/8
Q:1/4=124
K:D
d2 d>B  |AF d>B  |AF d>B  |AF ED   |
d2 d>B  |AF d>B  |FA E>F  |ED D2  :|
FA AG/F/|GB BA/G/|FA AD/E/|FE ED/E/|
FA AG/F/|GB BA/G/|FA EE/F/|ED D2  :|

